X:1
T:Charity, 77.75
T:Charity, 77.75
T:John Stainer, 1868
T:Public Domain Courtesy of the Cyber Hymnal™
C:John Stainer, 1868
Z:Public Domain
Z:Courtesy of the Cyber Hymnal™
%%score ( 1 2 ) ( 3 4 ) 5 6
L:1/8
Q:1/4=110
M:4/4
K:Ab
V:1 treble 
V:2 treble 
V:3 bass 
V:4 bass 
V:5 treble 
V:6 bass 
V:1
 [EA]2 [Ed]2 [Ec]2 =E2 | [FA]2 [FB]2 E4 | [CF]2 [EG]2 [EA]2 [EF]2 | [=DB]2 [FA]2 (A2 G2) | %4
 [EA]2 [Ce]2 [Dd]2 [Ec]2 | [FB]2 [FA]2 (A2 G2) |"^rall." A2 E2 F2 D2 | A8 |] %8
V:2
 x8 | x4 E4 | x8 | x4 E4 | x8 | x4 E4 | A2 E2 F2 D2 | A8 |] %8
V:3
 [A,C]2 [G,B,]2 A,2 [G,B,]2 | [F,C]2 (B,A,) A,2 G,2 | [E,A,]2 [D,B,]2 [C,A,]2 [A,,C]2 | %3
 [B,,F,]2 [=D,B,]2 B,4 | [C,A,]2 [_G,A,]2 [F,A,]2 [E,A,]2 | [D,D]2 [=D,C]2 (C2 B,2) | %6
 A,2 E,2 F,2 D,2 | A,8 |] %8
V:4
 x4 A,2 x2 | x2 D,2 E,4 | x8 | x4 (E,2 _D,2) | x8 | x4 E,4 | A,2 E,2 F,2 D,2 | A,8 |] %8
V:5
 z8 | z8 | z8 | z8 | z8 | z8 | [EA]4 [DA]4 | ([DF]4 [CE]4) |] %8
V:6
"^Organ" z8 | z8 | z8 | z8 | z8 | z8 | [C,A,]4 [D,F,]4 | A,,8 |] %8

